assets/Money with wings/Flat/money_with_wings_flat.svg

<svg width="32" height="32" viewBox="0 0 32 32" fill="none" xmlns="http://www.w3.org/2000/svg">
<path d="M12.0099 12.44H9.32994V12.41H7.63995C6.64387 12.41 5.83483 11.6337 5.78263 10.651C4.97212 10.4617 4.36831 9.74492 4.35031 8.87977C3.56944 8.65907 3 7.94314 3 7.08999L9.32994 7.08999V7.08997H12.0099C13.4899 7.08997 14.6899 8.28997 14.6899 9.76997C14.6899 11.25 13.4899 12.44 12.0099 12.44Z" fill="#E6E6E6"/>
<path d="M9.49181 7.08997H9.47621V8.60621L5.17369 8.60621C4.10972 8.60621 3.22878 7.95478 3.04164 7.08997H3.00494C3.00494 7.9413 3.57197 8.65599 4.35028 8.87833C4.36765 9.74411 4.97167 10.4616 5.78262 10.651C5.83482 11.6337 6.64386 12.4099 7.63995 12.4099H11.3299V12.0662H7.63995C6.76753 12.0662 6.0386 11.4707 5.83598 10.6626C5.95671 10.6871 6.08175 10.7 6.20989 10.7L9.89989 10.7V10.3562L6.20989 10.3562C5.31491 10.3562 4.57092 9.72955 4.39126 8.88953C4.54241 8.92897 4.70115 8.94996 4.86494 8.94996L9.49181 8.94996V7.08997Z" fill="#D3D3D3"/>
<path d="M29.24 14.4L16.46 27.18C15.78 27.86 14.67 27.86 13.99 27.18L12 25.1899C11.32 24.5099 11.32 23.3999 12 22.7199L24.79 9.94994C25.47 9.26994 26.58 9.26994 27.26 9.94994L29.25 11.94C29.92 12.61 29.92 13.72 29.24 14.4Z" fill="#008463"/>
<path d="M27.3 12.46L14.52 25.24C13.84 25.92 12.73 25.92 12.05 25.24L4.55999 17.75C3.87999 17.07 3.87999 15.96 4.55999 15.28L17.35 2.51C18.03 1.83 19.14 1.83 19.82 2.51L27.3 10C27.98 10.68 27.98 11.78 27.3 12.46Z" fill="#00F397"/>
<path d="M17.8086 4.28861C18.2643 3.83293 19.0136 3.82957 19.4825 4.28977L19.4835 4.29074L25.4214 10.2286C25.877 10.6842 25.8801 11.4327 25.4114 11.9014L13.9914 23.3214C13.5357 23.777 12.7864 23.7804 12.3175 23.3202L12.3165 23.3192L6.37863 17.3814C5.92298 16.9257 5.9196 16.1764 6.37972 15.7075L6.38076 15.7065L17.8085 4.28872L17.8086 4.28861ZM19.9965 3.76923C19.2454 3.03044 18.0355 3.02736 17.2915 3.77125L17.2914 3.77136L5.8615 15.1912L5.86149 15.1912L5.85926 15.1935C5.12043 15.9446 5.11738 17.1546 5.86139 17.8986L11.8014 23.8386L11.8035 23.8407C12.5547 24.5796 13.7646 24.5826 14.5086 23.8386L25.9286 12.4186C26.6799 11.6673 26.683 10.4557 25.9386 9.71136L19.9986 3.77136L19.9986 3.77135L19.9965 3.76923ZM22.13 11.0901C22.13 12.9734 20.6033 14.5001 18.72 14.5001C16.8367 14.5001 15.31 12.9734 15.31 11.0901C15.31 9.20679 16.8367 7.68008 18.72 7.68008C20.6033 7.68008 22.13 9.20679 22.13 11.0901Z" fill="#008463"/>
<path d="M12.6561 7.20054L9.53778 10.3188L21.4241 22.2052L24.5424 19.0869L12.6561 7.20054Z" fill="#FFF478"/>
<path d="M22.6098 17.162L19.4915 20.2803L21.429 22.2177L24.5473 19.0994L22.6098 17.162Z" fill="#FFB02E"/>
<path d="M9.65035 14.6466C9.50488 14.4973 9.26591 14.4942 9.1166 14.6397C8.9673 14.7852 8.9642 15.0241 9.10967 15.1735L9.62679 15.7042C9.19489 16.2737 9.16115 16.8348 9.28184 17.2821C9.34853 17.5293 9.45823 17.7284 9.54926 17.8645C9.5952 17.9331 9.63763 17.9876 9.66976 18.0261C9.7105 18.075 9.75576 18.1202 9.80495 18.1604C9.84287 18.1914 9.89633 18.2321 9.96376 18.2759C10.0975 18.3627 10.2931 18.466 10.5367 18.5255C11.0503 18.6509 11.71 18.5639 12.3669 17.907C12.6063 17.6676 12.8246 17.5599 13.0075 17.5166C13.1918 17.4729 13.3643 17.489 13.5185 17.5338C13.6747 17.5792 13.8079 17.653 13.9036 17.7178C13.9758 17.7666 14.039 17.8273 14.081 17.9036C14.1274 17.9877 14.1798 18.1068 14.2067 18.2483C14.2567 18.5102 14.2314 18.8949 13.7931 19.3332C13.3562 19.7701 12.9702 19.7941 12.7051 19.7422C12.5621 19.7141 12.4415 19.6606 12.356 19.6132C12.3139 19.5898 12.2818 19.5687 12.2618 19.5546C12.2518 19.5476 12.2449 19.5424 12.2413 19.5397L12.2387 19.5377C12.0784 19.4067 11.8421 19.4294 11.7096 19.589C11.5764 19.7494 11.5992 19.9879 11.7596 20.1211C11.76 20.1213 11.7604 20.1217 11.7604 20.1217L11.7623 20.1233L11.7673 20.1273L11.7817 20.1385C11.7933 20.1475 11.8089 20.1591 11.8283 20.1727C11.8671 20.1999 11.9215 20.2354 11.9896 20.2732C12.1248 20.3483 12.3204 20.436 12.5599 20.483C12.9849 20.5663 13.514 20.513 14.0458 20.1125L14.6315 20.7053C14.778 20.8536 15.017 20.855 15.1653 20.7085C15.3136 20.562 15.315 20.323 15.1685 20.1747L14.5787 19.5778C14.9734 19.0506 15.0286 18.5279 14.9483 18.1068C14.9028 17.8683 14.8163 17.6736 14.7421 17.539C14.6386 17.3514 14.5024 17.2116 14.3267 17.0926C14.1865 16.9977 13.9816 16.8822 13.7291 16.8088C13.4745 16.7349 13.1676 16.7028 12.8335 16.782C12.4979 16.8615 12.1588 17.0475 11.8331 17.3732C11.3601 17.8462 10.9697 17.8542 10.7158 17.7921C10.5757 17.7579 10.4582 17.6968 10.3747 17.6426C10.2914 17.5886 10.2321 17.5275 10.1767 17.4447C10.1174 17.3561 10.0502 17.2321 10.0107 17.0855C9.93871 16.8188 9.93987 16.424 10.4069 15.957C10.8737 15.4902 11.2745 15.4853 11.5487 15.5566C11.6985 15.5956 11.8253 15.6623 11.9158 15.7211C11.9604 15.7501 11.9944 15.776 12.016 15.7935C12.0268 15.8022 12.0343 15.8087 12.0384 15.8123L12.0417 15.8153C12.1929 15.9571 12.4304 15.9506 12.5735 15.8002C12.7172 15.6492 12.7106 15.4097 12.5595 15.266L12.5588 15.2653L12.557 15.2636L12.5522 15.2592L12.5379 15.2463C12.5264 15.2361 12.5107 15.2227 12.4911 15.2068C12.4519 15.1751 12.3967 15.1333 12.3271 15.0881C12.1891 14.9985 11.9878 14.8908 11.7388 14.826C11.2912 14.7096 10.7297 14.7439 10.1616 15.1713L9.65035 14.6466Z" fill="white"/>
<path d="M20.08 23.74V21.06C20.08 19.58 21.27 18.38 22.75 18.38C24.23 18.38 25.43 19.58 25.43 21.06V22.95H25.43V30.07C24.5769 30.07 23.8609 29.5005 23.6402 28.7196C22.7751 28.7016 22.0583 28.0978 21.869 27.2873C20.8863 27.2351 20.11 26.4261 20.11 25.43V23.74H20.08Z" fill="#E6E6E6"/>
<path d="M20.4537 25.43C20.4537 26.3024 21.0492 27.0314 21.8573 27.234C21.8328 27.1132 21.82 26.9882 21.82 26.86V23.17H22.1637V26.86C22.1637 27.755 22.7904 28.499 23.6304 28.6787C23.591 28.5275 23.57 28.3688 23.57 28.205V23.5781H25.43V23.5937H23.9137V27.8962C23.9137 28.9602 24.5652 29.8412 25.43 30.0283V30.065C24.5787 30.065 23.864 29.498 23.6416 28.7197C22.7759 28.7023 22.0584 28.0983 21.869 27.2873C20.8862 27.2351 20.11 26.4261 20.11 25.43V21.74H20.4537V25.43Z" fill="#D3D3D3"/>
</svg>

<svg xmlns="http://www.w3.org/2000/svg" width="32" height="32" fill="none"><path fill="#E6E6E6" d="M12.01 12.44H9.33v-.03H7.64a1.856 1.856 0 0 1-1.857-1.759A1.856 1.856 0 0 1 4.35 8.88 1.857 1.857 0 0 1 3 7.09h9.01c1.48 0 2.68 1.2 2.68 2.68 0 1.48-1.2 2.67-2.68 2.67Z"/><path fill="#D3D3D3" d="M9.492 7.09h-.016v1.516H5.174c-1.064 0-1.945-.651-2.132-1.516h-.037c0 .851.567 1.566 1.345 1.788a1.856 1.856 0 0 0 1.433 1.773A1.856 1.856 0 0 0 7.64 12.41h3.69v-.344H7.64a1.857 1.857 0 0 1-1.804-1.403c.12.024.246.037.374.037H9.9v-.344H6.21A1.856 1.856 0 0 1 4.39 8.89c.151.039.31.06.474.06h4.627V7.09Z"/><path fill="#008463" d="M29.24 14.4 16.46 27.18c-.68.68-1.79.68-2.47 0L12 25.19a1.75 1.75 0 0 1 0-2.47L24.79 9.95a1.75 1.75 0 0 1 2.47 0l1.99 1.99c.67.67.67 1.78-.01 2.46Z"/><path fill="#00F397" d="M27.3 12.46 14.52 25.24c-.68.68-1.79.68-2.47 0l-7.49-7.49a1.75 1.75 0 0 1 0-2.47L17.35 2.51a1.75 1.75 0 0 1 2.47 0L27.3 10c.68.68.68 1.78 0 2.46Z"/><path fill="#008463" d="M17.809 4.289a1.191 1.191 0 0 1 1.674 0v.002l5.938 5.938a1.183 1.183 0 0 1-.01 1.672l-11.42 11.42a1.192 1.192 0 0 1-1.673 0l-.002-.002-5.937-5.938a1.192 1.192 0 0 1 0-1.674h.002L17.808 4.289Zm2.188-.52a1.923 1.923 0 0 0-2.706.002l-11.43 11.42-.002.002a1.923 1.923 0 0 0 .002 2.706l5.94 5.94.002.002a1.923 1.923 0 0 0 2.706-.002l11.42-11.42a1.914 1.914 0 0 0 .01-2.708l-5.94-5.94-.002-.002Zm2.133 7.321a3.41 3.41 0 1 1-6.82 0 3.41 3.41 0 0 1 6.82 0Z"/><path fill="#FFF478" d="M12.656 7.2 9.538 10.32l11.886 11.886 3.118-3.118L12.656 7.2Z"/><path fill="#FFB02E" d="M22.61 17.162 19.49 20.28l1.938 1.938 3.118-3.119-1.937-1.937Z"/><path fill="#fff" d="M9.65 14.647a.377.377 0 1 0-.54.527l.517.53c-.432.57-.466 1.13-.345 1.578a1.99 1.99 0 0 0 .388.744 1 1 0 0 0 .135.134 1.88 1.88 0 0 0 .732.365c.513.126 1.173.039 1.83-.618.24-.24.458-.347.64-.39a.99.99 0 0 1 .511.017c.157.045.29.119.386.184.072.049.135.11.177.186.046.084.099.203.126.344.05.262.024.647-.414 1.085-.437.437-.823.461-1.088.41a1.21 1.21 0 0 1-.443-.188l-.02-.015-.003-.002a.377.377 0 0 0-.479.584l.002.001.005.004.015.012.046.034a1.962 1.962 0 0 0 .732.31c.425.083.954.03 1.486-.37l.586.592a.377.377 0 0 0 .537-.53l-.59-.597c.394-.527.45-1.05.37-1.471a1.937 1.937 0 0 0-.207-.568 1.263 1.263 0 0 0-.415-.446 2.148 2.148 0 0 0-.598-.284 1.745 1.745 0 0 0-.895-.027c-.336.08-.675.265-1 .591-.474.473-.864.481-1.118.42a1.126 1.126 0 0 1-.341-.15.66.66 0 0 1-.198-.198 1.233 1.233 0 0 1-.166-.36c-.072-.266-.071-.661.396-1.128.467-.467.867-.472 1.142-.4a1.273 1.273 0 0 1 .49.255l.003.003a.378.378 0 0 0 .518-.549h-.001l-.002-.002-.005-.005-.014-.013a1.956 1.956 0 0 0-.21-.158 2.028 2.028 0 0 0-.59-.262c-.447-.116-1.008-.082-1.576.345l-.512-.524Z"/><path fill="#E6E6E6" d="M20.08 23.74v-2.68c0-1.48 1.19-2.68 2.67-2.68s2.68 1.2 2.68 2.68v9.01c-.853 0-1.57-.57-1.79-1.35a1.856 1.856 0 0 1-1.771-1.433 1.856 1.856 0 0 1-1.759-1.857v-1.69h-.03Z"/><path fill="#D3D3D3" d="M20.454 25.43c0 .872.595 1.601 1.403 1.804a1.88 1.88 0 0 1-.037-.374v-3.69h.344v3.69c0 .895.626 1.639 1.466 1.819-.039-.151-.06-.31-.06-.474v-4.627h1.86v.016h-1.516v4.302c0 1.064.651 1.945 1.516 2.132v.037a1.857 1.857 0 0 1-1.788-1.345 1.856 1.856 0 0 1-1.773-1.433 1.856 1.856 0 0 1-1.759-1.857v-3.69h.344v3.69Z"/></svg>
